images/icon/icon_global.svg

<?xml version="1.0" encoding="utf-8"?>
<!-- Generator: Adobe Illustrator 16.0.0, SVG Export Plug-In . SVG Version: 6.00 Build 0)  -->
<!DOCTYPE svg PUBLIC "-//W3C//DTD SVG 1.1//EN" "http://www.w3.org/Graphics/SVG/1.1/DTD/svg11.dtd">
<svg version="1.1" id="圖層_1" xmlns="http://www.w3.org/2000/svg" xmlns:xlink="http://www.w3.org/1999/xlink" x="0px" y="0px"
	 width="28.35px" height="28.35px" viewBox="0 0 28.35 28.35" enable-background="new 0 0 28.35 28.35" xml:space="preserve">
<linearGradient id="SVGID_1_" gradientUnits="userSpaceOnUse" x1="14.1753" y1="27.4414" x2="14.1753" y2="0.9082">
	<stop  offset="0" style="stop-color:#040000"/>
	<stop  offset="1" style="stop-color:#575858"/>
</linearGradient>
<path fill-rule="evenodd" clip-rule="evenodd" fill="url(#SVGID_1_)" d="M14.174,0.908c-7.325,0-13.266,5.942-13.266,13.267
	s5.941,13.267,13.266,13.267c7.326,0,13.268-5.941,13.268-13.267S21.5,0.908,14.174,0.908L14.174,0.908z M23.738,19.15
	c-0.879,1.686-2.19,3.107-3.789,4.125l0.004-0.004c0.65-1.178,1.174-2.578,1.537-4.121H23.738L23.738,19.15z M18.929,19.15
	c-0.297,1.092-0.688,2.082-1.152,2.928c-0.674,1.215-1.482,2.115-2.357,2.561V19.15H18.929L18.929,19.15z M12.931,19.15v5.488
	c-0.876-0.445-1.688-1.346-2.359-2.561c-0.468-0.846-0.858-1.836-1.155-2.928H12.931L12.931,19.15z M6.856,19.15
	c0.362,1.543,0.89,2.943,1.539,4.121l0.001,0.004C6.8,22.258,5.489,20.836,4.608,19.15H6.856L6.856,19.15z M3.684,16.662
	c-0.189-0.797-0.289-1.633-0.289-2.487c0-0.857,0.1-1.688,0.289-2.487h2.75c-0.091,0.805-0.138,1.638-0.138,2.487
	c0,0.851,0.046,1.681,0.138,2.487H3.684L3.684,16.662z M8.935,16.662c-0.1-0.797-0.152-1.631-0.152-2.487
	c0-0.857,0.053-1.688,0.152-2.487h3.996v4.974H8.935L8.935,16.662z M15.419,16.662v-4.974h3.995c0.097,0.798,0.148,1.63,0.148,2.487
	c0,0.856-0.052,1.69-0.148,2.487H15.419L15.419,16.662z M21.916,16.662c0.087-0.807,0.134-1.637,0.134-2.487
	c0-0.849-0.047-1.682-0.134-2.487h2.748c0.188,0.798,0.289,1.63,0.289,2.487c0,0.854-0.101,1.69-0.289,2.487H21.916L21.916,16.662z
	 M4.608,9.2C5.489,7.515,6.8,6.09,8.396,5.074L8.395,5.076C7.746,6.255,7.218,7.652,6.856,9.2H4.608L4.608,9.2z M9.417,9.2
	c0.296-1.095,0.687-2.083,1.155-2.928c0.671-1.217,1.483-2.116,2.359-2.561V9.2H9.417L9.417,9.2z M15.419,9.2V3.711
	c0.875,0.445,1.684,1.343,2.357,2.561c0.465,0.845,0.855,1.833,1.152,2.928H15.419L15.419,9.2z M21.49,9.2
	c-0.363-1.547-0.887-2.945-1.537-4.124l-0.004-0.002c1.599,1.016,2.91,2.44,3.789,4.125H21.49z"/>
</svg>

<svg id="圖層_1" data-name="圖層 1" xmlns="http://www.w3.org/2000/svg" viewBox="0 0 26.53 26.53"><defs><style>.cls-1{fill:#fff;fill-rule:evenodd;}</style></defs><path class="cls-1" d="M14.17.91A13.27,13.27,0,1,0,27.44,14.18,13.27,13.27,0,0,0,14.17.91Zm9.57,18.24A10.73,10.73,0,0,1,20,23.27h0a16.26,16.26,0,0,0,1.54-4.12Zm-4.81,0a14,14,0,0,1-1.15,2.93,6.18,6.18,0,0,1-2.36,2.56V19.15Zm-6,0v5.49a6.11,6.11,0,0,1-2.36-2.56,13,13,0,0,1-1.15-2.93Zm-6.07,0A16.26,16.26,0,0,0,8.4,23.27h0a10.73,10.73,0,0,1-3.79-4.12ZM3.68,16.66a11.22,11.22,0,0,1-.29-2.48,10.74,10.74,0,0,1,.29-2.49H6.43a22.42,22.42,0,0,0-.13,2.49,22.24,22.24,0,0,0,.13,2.48Zm5.26,0a19.38,19.38,0,0,1,0-5h4v5Zm6.48,0v-5h4a20.07,20.07,0,0,1,.15,2.49,19.91,19.91,0,0,1-.15,2.48Zm6.5,0c.08-.8.13-1.63.13-2.48s-.05-1.69-.13-2.49h2.74a10.79,10.79,0,0,1,0,5ZM4.61,9.2A10.83,10.83,0,0,1,8.4,5.07h0A16.12,16.12,0,0,0,6.86,9.2Zm4.81,0a12.78,12.78,0,0,1,1.15-2.93,6.05,6.05,0,0,1,2.36-2.56V9.2Zm6,0V3.71a6.18,6.18,0,0,1,2.36,2.56A14,14,0,0,1,18.93,9.2Zm6.07,0A16.12,16.12,0,0,0,20,5.08h0A10.83,10.83,0,0,1,23.74,9.2Z" transform="translate(-0.91 -0.91)"/></svg>
